!!!OTL: ES IST BESTIMMT IN GOTTES RATH
!!!ARE: Europa, Mitteleuropa, Deutschland
!!!SCT: F0191
!!!YEM: Copyright 1995, estate of Helmut Schaffrath.
**kern
*ICvox
*Ivox
*M4/4
*k[f#c#]
*D:
{4A
=1
4.G
8F#
4F#
4d
=2
4.c#
8B
4B}
{4B
=3
4E
4F#
4G
4B
=4
4.A
8G
4F#}
{4A
=5
4.E
8G
4F#}
{4F#
=6
4d
4c#
4.B
8A
=7
4.A
8G#
4G#}
{4D
=8
4c#
4B
4.A
8G
=9
4.G#
8F#
4F#}
{4A
=10
4.E
8G
4F#
4A
=11
2.E
4G
=12
2.F#}
==
!!!AGN: Abschieds - Lied
!!!ONB: ESAC (Essen Associative Code) Database: FINK
!!!AMT: simple quadruple
!!!AIN: vox
!!!EED: Helmut Schaffrath
!!!EEV: 1.0
*-
